X: 16659
T: Hanter Dro
R: three-two
M: 3/2
K: Eminor
|:A|B2EG B2G2 c4|B2EG B2G2 A2e2|B2EG B2G2 c3B|A>BAG F2D2 E3:|
d|e2ed c3c d>edc|BAGG A/B/AGA B4|e2ed c2c2 ded^c|d4 cABc ABc/B/||

